X:165
T:RVW2/2/165 Spencer The Rover
C:Mr. Earle, Leith Hill, Surrey, September - October 1904
L:1/4
Q:1/4=110
M:3/4
I:linebreak $
K:F
"^(Editorial suggestion) " c | F G A | B c d | c G B | A F F |$ F F F | f f g | _e c f | 
w: These|words were com-|po- s�d by|Spen- cer the|ro- ver who|tra- velled most|parts of Great|Bri- tain and|
c2 (d/e/) |$ f (c/d/) _e | d B d | c A c | B G E |$ F G (A/B/) | (c/d/) _e d | 
w: Wales He's _|being much _ re-|du- c�d which|caused great con-|fu- sion and|this was the _|rea- * son a-|
(B/A/) F"^?" !courtesy!_E | F2 |] 
w: ram- * bling he|went.|



